src/favicon.svg

<svg xmlns="http://www.w3.org/2000/svg" viewBox="0 0 1000 1000" xml:space="preserve" fill="#3a7c20"><path d="M847.1 316.2c0-101.5-82.3-183.7-183.8-183.7H336.7c-38 0-70-25.9-79-61.3 0 0-2.7-6.7-2.7-10.2 0-28.2-22.9-51-51-51-28.2 0-51 22.9-51 51 0 3.9.4 7.6 1.2 11.2 10.6 91.5 88.2 162.3 182.5 162.3h326.7c45.1 0 81.7 36.5 81.7 81.7H91.7c-45.1 0-81.7 36.5-81.7 81.7v510.4c0 45.1 36.5 81.7 81.7 81.7h816.7c45.1 0 81.7-36.5 81.7-81.7V397.9c0-45.1-36.5-81.7-81.7-81.7h-61.3zM612.3 418.3c28.2 0 51 22.9 51 51s-22.9 51-51 51-51-22.9-51-51 22.8-51 51-51zm0 183.8c28.2 0 51 22.9 51 51s-22.9 51-51 51-51-22.9-51-51 22.8-51 51-51zM387.7 418.3c28.2 0 51 22.9 51 51s-22.9 51-51 51-51-22.9-51-51 22.8-51 51-51zm0 183.8c28.2 0 51 22.9 51 51s-22.9 51-51 51-51-22.9-51-51 22.8-51 51-51zM163.1 418.3c28.2 0 51 22.9 51 51s-22.9 51-51 51c-28.2 0-51-22.9-51-51s22.8-51 51-51zm0 183.8c28.2 0 51 22.9 51 51s-22.9 51-51 51c-28.2 0-51-22.9-51-51s22.8-51 51-51zm0 183.7c28.2 0 51 22.9 51 51 0 28.2-22.9 51-51 51-28.2 0-51-22.9-51-51s22.8-51 51-51zm673.8-367.5c28.2 0 51 22.9 51 51s-22.9 51-51 51-51-22.9-51-51 22.8-51 51-51zm0 183.8c28.2 0 51 22.9 51 51s-22.9 51-51 51-51-22.9-51-51 22.8-51 51-51zm0 183.7c28.2 0 51 22.9 51 51 0 28.2-22.9 51-51 51s-51-22.9-51-51c-.1-28.1 22.8-51 51-51zM663.3 887.9H336.7c-22.5 0-40.8-18.4-40.8-40.8s18.4-40.8 40.8-40.8h326.7c22.5 0 40.8 18.4 40.8 40.8s-18.4 40.8-40.9 40.8z"/></svg>

<?xml version="1.0" encoding="utf-8"?>
<!-- Svg Vector Icons : http://www.onlinewebfonts.com/icon -->
<!DOCTYPE svg PUBLIC "-//W3C//DTD SVG 1.1//EN" "http://www.w3.org/Graphics/SVG/1.1/DTD/svg11.dtd">
<svg version="1.1" xmlns="http://www.w3.org/2000/svg" xmlns:xlink="http://www.w3.org/1999/xlink" x="0px" y="0px" viewBox="0 0 1000 1000" enable-background="new 0 0 1000 1000" xml:space="preserve">
<metadata> Svg Vector Icons : http://www.onlinewebfonts.com/icon </metadata>
<g><g><path d="M847.1,316.2c0-101.5-82.3-183.7-183.8-183.7H336.7c-38,0-70-25.9-79-61.3c0,0-2.7-6.7-2.7-10.2c0-28.2-22.9-51-51-51c-28.2,0-51,22.9-51,51c0,3.9,0.4,7.6,1.2,11.2c10.6,91.5,88.2,162.3,182.5,162.3h326.7c45.1,0,81.7,36.5,81.7,81.7H91.7c-45.1,0-81.7,36.5-81.7,81.7v510.4c0,45.1,36.5,81.7,81.7,81.7h816.7c45.1,0,81.7-36.5,81.7-81.7l0-510.4c0-45.1-36.5-81.7-81.7-81.7H847.1L847.1,316.2z M612.3,418.3c28.2,0,51,22.9,51,51s-22.9,51-51,51s-51-22.9-51-51S584.1,418.3,612.3,418.3z M612.3,602.1c28.2,0,51,22.9,51,51s-22.9,51-51,51s-51-22.9-51-51S584.1,602.1,612.3,602.1z M387.7,418.3c28.2,0,51,22.9,51,51s-22.9,51-51,51s-51-22.9-51-51S359.5,418.3,387.7,418.3z M387.7,602.1c28.2,0,51,22.9,51,51s-22.9,51-51,51s-51-22.9-51-51S359.5,602.1,387.7,602.1z M163.1,418.3c28.2,0,51,22.9,51,51s-22.9,51-51,51c-28.2,0-51-22.9-51-51S134.9,418.3,163.1,418.3z M163.1,602.1c28.2,0,51,22.9,51,51s-22.9,51-51,51c-28.2,0-51-22.9-51-51S134.9,602.1,163.1,602.1z M163.1,785.8c28.2,0,51,22.9,51,51c0,28.2-22.9,51-51,51c-28.2,0-51-22.9-51-51C112.1,808.7,134.9,785.8,163.1,785.8z M836.9,418.3c28.2,0,51,22.9,51,51s-22.9,51-51,51s-51-22.9-51-51S808.7,418.3,836.9,418.3z M836.9,602.1c28.2,0,51,22.9,51,51s-22.9,51-51,51s-51-22.9-51-51S808.7,602.1,836.9,602.1z M836.9,785.8c28.2,0,51,22.9,51,51c0,28.2-22.9,51-51,51s-51-22.9-51-51C785.8,808.7,808.7,785.8,836.9,785.8z M663.3,887.9H336.7c-22.5,0-40.8-18.4-40.8-40.8s18.4-40.8,40.8-40.8h326.7c22.5,0,40.8,18.4,40.8,40.8S685.8,887.9,663.3,887.9L663.3,887.9z"/></g></g>
</svg>
